X: 8759
T: Cucanandy
R: slip jig
M: 9/8
K: Eminor
|:B3 B2A G2A|B2d d2B d3|B3 B2A G2A|B2 e e2d e3:|
e2f g2f g3|B2d d2B d3|e2f g2a g3|B2e e2f e3|
e2f g2f g3|B2d d2B d3|e2B B2A G2A|B2e e2f e3||

